SVG_Azure_All/Time Series Insights Reference Data Set.svg

<?xml version="1.0" encoding="UTF-8" standalone="no"?>
<!-- Generated by Microsoft Visio, SVG Export Time Series Insights Reference Data Set.svg Page-1 -->

<svg
   xmlns:dc="http://purl.org/dc/elements/1.1/"
   xmlns:cc="http://creativecommons.org/ns#"
   xmlns:rdf="http://www.w3.org/1999/02/22-rdf-syntax-ns#"
   xmlns:svg="http://www.w3.org/2000/svg"
   xmlns="http://www.w3.org/2000/svg"
   xmlns:sodipodi="http://sodipodi.sourceforge.net/DTD/sodipodi-0.dtd"
   xmlns:inkscape="http://www.inkscape.org/namespaces/inkscape"
   width="0.59032607in"
   height="0.78662169in"
   viewBox="0 0 42.503648 56.636599"
   xml:space="preserve"
   class="st7"
   version="1.1"
   id="svg53"
   sodipodi:docname="Time Series Insights Reference Data Set.svg"
   style="font-size:12px;overflow:visible;color-interpolation-filters:sRGB;fill:none;fill-rule:evenodd;stroke-linecap:square;stroke-miterlimit:3"
   inkscape:version="0.92.5 (2060ec1f9f, 2020-04-08)"><metadata
   id="metadata57"><rdf:RDF><cc:Work
       rdf:about=""><dc:format>image/svg+xml</dc:format><dc:type
         rdf:resource="http://purl.org/dc/dcmitype/StillImage" /></cc:Work></rdf:RDF></metadata><sodipodi:namedview
   pagecolor="#ffffff"
   bordercolor="#666666"
   borderopacity="1"
   objecttolerance="10"
   gridtolerance="10"
   guidetolerance="10"
   inkscape:pageopacity="0"
   inkscape:pageshadow="2"
   inkscape:window-width="640"
   inkscape:window-height="480"
   id="namedview55"
   showgrid="false"
   inkscape:zoom="1.4196644"
   inkscape:cx="28.333097"
   inkscape:cy="37.727844"
   inkscape:window-x="0"
   inkscape:window-y="0"
   inkscape:window-maximized="0"
   inkscape:current-layer="svg53" />
	<style
   type="text/css"
   id="style2">
	<![CDATA[
		.st1 {fill:url(#grad0-6);stroke:none;stroke-linecap:butt;stroke-width:34}
		.st2 {fill:#e6e6e6;stroke:none;stroke-linecap:butt;stroke-width:34}
		.st3 {fill:#50e6ff}
		.st4 {stroke:none;stroke-linecap:butt;stroke-width:34}
		.st5 {fill:#198ab3;stroke:none;stroke-linecap:butt;stroke-width:34}
		.st6 {fill:#f2f2f2;stroke:none;stroke-linecap:butt;stroke-width:34}
		.st7 {fill:none;fill-rule:evenodd;font-size:12px;overflow:visible;stroke-linecap:square;stroke-miterlimit:3}
	]]>
	</style>

	<defs
   id="Patterns_And_Gradients">
		<linearGradient
   id="grad0-6"
   x1="0.010723431"
   y1="70.536381"
   x2="45.621946"
   y2="70.536381"
   gradientTransform="scale(0.93178839,1.073205)"
   gradientUnits="userSpaceOnUse">
			<stop
   offset="0"
   stop-color="#005ba1"
   stop-opacity="1"
   id="stop4" />
			<stop
   offset="0.07"
   stop-color="#0060a9"
   stop-opacity="1"
   id="stop6" />
			<stop
   offset="0.355"
   stop-color="#0071c8"
   stop-opacity="1"
   id="stop8" />
			<stop
   offset="0.82"
   stop-color="#006abb"
   stop-opacity="1"
   id="stop10" />
			<stop
   offset="1"
   stop-color="#005ba1"
   stop-opacity="1"
   id="stop12" />
		</linearGradient>
	</defs>
	<g
   id="g51"
   transform="translate(-34.000592,-33.997935)">
		<title
   id="title16">Page-1</title>
		<g
   id="group721-1"
   transform="translate(33.9906,-34.0157)">
			<title
   id="title18">Time Series Insights Reference Data Set</title>
			<g
   id="group722-2">
				<title
   id="title20">MsPortalFx.base.images-9</title>
				<g
   id="shape723-3">
					<title
   id="title22">Sheet.723</title>
					<path
   d="M 21.29,83.49 C 9.59,83.46 0.1,79.97 0.12,75.7 l -0.11,41.16 c -0.01,4.23 9.32,7.7 20.89,7.79 h 0.29 c 11.7,0.03 21.2,-3.41 21.21,-7.68 L 42.51,75.81 C 42.5,80.08 33,83.52 21.29,83.49 Z"
   class="st1"
   id="path24"
   inkscape:connector-curvature="0"
   style="fill:url(#grad0-6);stroke:none;stroke-width:34;stroke-linecap:butt" />
				</g>
				<g
   id="shape724-7"
   transform="translate(0.10363,-41.1566)">
					<title
   id="title27">Sheet.724</title>
					<path
   d="m 42.41,116.96 c 0,4.28 -9.52,7.72 -21.22,7.69 C 9.48,124.61 0,121.13 0.01,116.86 c 0.02,-4.28 9.53,-7.72 21.22,-7.69 11.69,0.03 21.19,3.52 21.18,7.79 z"
   class="st2"
   id="path29"
   inkscape:connector-curvature="0"
   style="fill:#e6e6e6;stroke:none;stroke-width:34;stroke-linecap:butt" />
				</g>
				<g
   id="shape725-9"
   transform="translate(5.05903,-44.608)">
					<title
   id="title32">Sheet.725</title>
					<path
   d="m 32.5,119.78 c 0,2.71 -7.28,4.9 -16.26,4.87 C 7.27,124.63 0,122.41 0.01,119.69 c 0,-2.71 7.28,-4.9 16.26,-4.86 8.97,0.03 16.24,2.24 16.23,4.96 z"
   class="st3"
   id="path34"
   inkscape:connector-curvature="0"
   style="fill:#50e6ff" />
					<path
   d="m 32.5,119.78 c 0,2.71 -7.28,4.9 -16.26,4.87 C 7.27,124.63 0,122.41 0.01,119.69 c 0,-2.71 7.28,-4.9 16.26,-4.86 8.97,0.03 16.24,2.24 16.23,4.96"
   class="st4"
   id="path36"
   inkscape:connector-curvature="0"
   style="stroke:none;stroke-width:34;stroke-linecap:butt" />
				</g>
				<g
   id="shape726-12"
   transform="translate(8.43485,-44.6332)">
					<title
   id="title39">Sheet.726</title>
					<path
   d="M 12.88,120.89 A 39.0716,39.1461 -180 0 0 0,122.73 a 37.7276,37.7995 -180 0 0 12.88,1.95 37.7998,37.8718 -180 0 0 12.87,-1.89 39.0434,39.1178 -180 0 0 -12.87,-1.9 z"
   class="st5"
   id="path41"
   inkscape:connector-curvature="0"
   style="fill:#198ab3;stroke:none;stroke-width:34;stroke-linecap:butt" />
				</g>
				<g
   id="shape727-14"
   transform="translate(7.04998,-15.0518)">
					<title
   id="title44">Sheet.727</title>
					<path
   d="m 0,124.68 v -16.24 h 5.73 c 5.76,0 8.63,2.63 8.63,7.91 a 7.99521,8.01044 0 0 1 -2.35,6.06 8.68607,8.70262 0 0 1 -6.28,2.27 z m 3.65,-13.26 v 10.29 h 1.81 a 4.89573,4.90506 -180 0 0 3.73,-1.43 5.41074,5.42105 -180 0 0 1.35,-3.88 4.90829,4.91764 -180 0 0 -1.35,-3.65 5.10299,5.11271 -180 0 0 -3.77,-1.33 z m 13.42,13.26 v -16.24 h 5.9 a 7.37343,7.38748 0 0 1 4.17,0.99 3.19683,3.20292 0 0 1 1.46,2.81 3.31302,3.31933 0 0 1 -0.89,2.29 4.67591,4.68482 0 0 1 -2.26,1.37 v 0.05 a 4.48749,4.49604 0 0 1 2.76,1.28 3.5611,3.56789 0 0 1 1.03,2.59 4.32734,4.33558 0 0 1 -1.59,3.54 6.67,6.68271 0 0 1 -4.35,1.31 z m 3.65,-13.53 V 115 h 1.6 a 2.68182,2.68693 -180 0 0 1.78,-0.55 1.8622,1.86575 -180 0 0 0.65,-1.51 c 0,-1.2 -0.88,-1.79 -2.66,-1.79 z m 0,6.56 V 122 h 1.97 a 3.03981,3.0456 -180 0 0 1.98,-0.59 1.95955,1.96328 -180 0 0 0.72,-1.61 1.82766,1.83114 -180 0 0 -0.7,-1.53 3.12146,3.12741 -180 0 0 -1.98,-0.56 z"
   class="st6"
   id="path46"
   inkscape:connector-curvature="0"
   style="fill:#f2f2f2;stroke:none;stroke-width:34;stroke-linecap:butt" />
				</g>
			</g>
		</g>
	</g>
</svg>

<?xml version="1.0" encoding="UTF-8" standalone="no"?>
<!DOCTYPE svg PUBLIC "-//W3C//DTD SVG 1.1//EN" "http://www.w3.org/Graphics/SVG/1.1/DTD/svg11.dtd">
<!-- Generated by Microsoft Visio, SVG Export Time Series Insights Reference Data Set.svg Page-1 -->
<svg xmlns="http://www.w3.org/2000/svg" xmlns:xlink="http://www.w3.org/1999/xlink" xmlns:ev="http://www.w3.org/2001/xml-events"
		width="1.53473in" height="1.73163in" viewBox="0 0 110.501 124.677" xml:space="preserve" color-interpolation-filters="sRGB"
		class="st7">
	<style type="text/css">
	<![CDATA[
		.st1 {fill:url(#grad0-6);stroke:none;stroke-linecap:butt;stroke-width:34}
		.st2 {fill:#e6e6e6;stroke:none;stroke-linecap:butt;stroke-width:34}
		.st3 {fill:#50e6ff}
		.st4 {stroke:none;stroke-linecap:butt;stroke-width:34}
		.st5 {fill:#198ab3;stroke:none;stroke-linecap:butt;stroke-width:34}
		.st6 {fill:#f2f2f2;stroke:none;stroke-linecap:butt;stroke-width:34}
		.st7 {fill:none;fill-rule:evenodd;font-size:12px;overflow:visible;stroke-linecap:square;stroke-miterlimit:3}
	]]>
	</style>

	<defs id="Patterns_And_Gradients">
		<linearGradient id="grad0-6" x1="0" y1="0" x2="1" y2="0" gradientTransform="rotate(0.12783067158105 0.5 0.5)">
			<stop offset="0" stop-color="#005ba1" stop-opacity="1"/>
			<stop offset="0.07" stop-color="#0060a9" stop-opacity="1"/>
			<stop offset="0.355" stop-color="#0071c8" stop-opacity="1"/>
			<stop offset="0.82" stop-color="#006abb" stop-opacity="1"/>
			<stop offset="1" stop-color="#005ba1" stop-opacity="1"/>
		</linearGradient>
	</defs>
	<g>
		<title>Page-1</title>
		<g id="group706-1" transform="translate(33.9906,-34.0157)">
			<title>Time Series Insights Reference Data Set</title>
			<g id="group707-2">
				<title>MsPortalFx.base.images-9</title>
				<g id="shape708-3">
					<title>Sheet.708</title>
					<path d="M21.29 83.49 C9.59 83.46 0.1 79.97 0.12 75.7 L0.01 116.86 C0 121.09 9.33 124.56 20.9 124.65 L21.19 124.65
								 C32.89 124.68 42.39 121.24 42.4 116.97 L42.51 75.81 C42.5 80.08 33 83.52 21.29 83.49 Z"
							class="st1"/>
				</g>
				<g id="shape709-7" transform="translate(0.10363,-41.1566)">
					<title>Sheet.709</title>
					<path d="M42.41 116.96 C42.41 121.24 32.89 124.68 21.19 124.65 C9.48 124.61 0 121.13 0.01 116.86 C0.03 112.58
								 9.54 109.14 21.23 109.17 C32.92 109.2 42.42 112.69 42.41 116.96 Z" class="st2"/>
				</g>
				<g id="shape710-9" transform="translate(5.05903,-44.608)">
					<title>Sheet.710</title>
					<path d="M32.5 119.78 C32.5 122.49 25.22 124.68 16.24 124.65 C7.27 124.63 0 122.41 0.01 119.69 C0.01 116.98 7.29
								 114.79 16.27 114.83 C25.24 114.86 32.51 117.07 32.5 119.79 L32.5 119.78 Z" class="st3"/>
					<path d="M32.5 119.78 C32.5 122.49 25.22 124.68 16.24 124.65 C7.27 124.63 0 122.41 0.01 119.69 C0.01 116.98 7.29
								 114.79 16.27 114.83 C25.24 114.86 32.51 117.07 32.5 119.79" class="st4"/>
				</g>
				<g id="shape711-12" transform="translate(8.43485,-44.6332)">
					<title>Sheet.711</title>
					<path d="M12.88 120.89 A39.0716 39.1461 -180 0 0 -0 122.73 A37.7276 37.7995 -180 0 0 12.88 124.68 A37.7998 37.8718
								 -180 0 0 25.75 122.79 A39.0434 39.1178 -180 0 0 12.88 120.89 Z" class="st5"/>
				</g>
				<g id="shape712-14" transform="translate(7.04998,-15.0518)">
					<title>Sheet.712</title>
					<path d="M0 124.68 L0 108.44 L5.73 108.44 C11.49 108.44 14.36 111.07 14.36 116.35 A7.99521 8.01044 0 0 1 12.01
								 122.41 A8.68607 8.70262 0 0 1 5.73 124.68 L0 124.68 ZM3.65 111.42 L3.65 121.71 L5.46 121.71 A4.89573
								 4.90506 -180 0 0 9.19 120.28 A5.41074 5.42105 -180 0 0 10.54 116.4 A4.90829 4.91764 -180 0 0 9.19
								 112.75 A5.10299 5.11271 -180 0 0 5.42 111.42 L3.65 111.42 ZM17.07 124.68 L17.07 108.44 L22.97 108.44
								 A7.37343 7.38748 0 0 1 27.14 109.43 A3.19683 3.20292 0 0 1 28.6 112.24 A3.31302 3.31933 0 0 1 27.71
								 114.53 A4.67591 4.68482 0 0 1 25.45 115.9 L25.45 115.95 A4.48749 4.49604 0 0 1 28.21 117.23 A3.5611
								 3.56789 0 0 1 29.24 119.82 A4.32734 4.33558 0 0 1 27.65 123.36 A6.67 6.68271 0 0 1 23.3 124.67 L17.07
								 124.68 ZM20.72 111.15 L20.72 115 L22.32 115 A2.68182 2.68693 -180 0 0 24.1 114.45 A1.8622 1.86575
								 -180 0 0 24.75 112.94 C24.75 111.74 23.87 111.15 22.09 111.15 L20.72 111.15 ZM20.72 117.71 L20.72
								 122 L22.69 122 A3.03981 3.0456 -180 0 0 24.67 121.41 A1.95955 1.96328 -180 0 0 25.39 119.8 A1.82766
								 1.83114 -180 0 0 24.69 118.27 A3.12146 3.12741 -180 0 0 22.71 117.71 L20.72 117.71 Z" class="st6"/>
				</g>
			</g>
		</g>
	</g>
</svg>
